app/assets/images/google.svg

<svg height="23" viewBox="0 0 23 23" width="23" xmlns="http://www.w3.org/2000/svg"><g fill="none" fill-rule="evenodd"><path d="m7.91174863.62895442c-2.84672131.95576408-5.27240437 3.0461126-6.62349726 5.69142092-.47131148.91260053-.81065574 1.88069705-1.01803279 2.88579088-.51530055 2.49115278-.15710383 5.14879358 1.01174863 7.41796248.76038252 1.4798927 1.85382514 2.7994638 3.17349727 3.8292225 1.25054645.9742627 2.70218579 1.7018767 4.24808743 2.102681 1.94808739.5117962 4.02185789.4994638 5.98251369.0616622 1.7721311-.4008043 3.45-1.233244 4.7885246-2.4418231 1.4139344-1.2764075 2.425683-2.9536193 2.959836-4.7603217.5844263-1.9670241.6598361-4.0697051.2953552-6.0922252h-10.9972677v4.4766756h6.3721311c-.245082 1.430563-1.1122951 2.7378016-2.3377049 3.5455764-.7729508.5117963-1.6590164.8386059-2.5765027.9989276-.9174864.1541555-1.8726776.1726542-2.790164-.0061662-.93633877-.1849866-1.82240435-.5672922-2.60163932-1.1037533-1.2442623-.8571046-2.1931694-2.1088472-2.67704918-3.5209116-.49644809-1.4367292-.50273224-3.0337801 0-4.46434314.35191257-1.01126005.93005464-1.94235925 1.69672131-2.70697051.94262295-.94959786 2.16803279-1.62788204 3.49398909-1.90536193 1.1311475-.23431635 2.3251366-.19115282 3.4311475.13565684.942623.27747989 1.8098361.78927613 2.5199454 1.45522788.7163934-.70294906 1.4327869-1.40589813 2.1491803-2.10884719.3770492-.37613941.7729508-.73994638 1.1374317-1.12841823-1.0871585-.98659517-2.3691257-1.78203753-3.7642077-2.28766756-2.5136612-.91260054-5.34153-.93109919-7.87404367-.07399464z" fill="#fff"/><path d="m7.91174863.62895442c2.52622947-.85710455 5.36038247-.8386059 7.87404367.06782842 1.395082.50563003 2.6707651 1.29490617 3.7642077 2.28766756-.3644809.38847185-.7603825.75227882-1.1374317 1.12841823-.7163934.70294906-1.4327869 1.40589813-2.1491803 2.10884719-.7101093-.66595174-1.5773224-1.17158177-2.5199454-1.45522788-1.1060109-.32680966-2.3-.37613941-3.4311475-.13565684-1.31967215.27747989-2.54508199.95576407-3.49398909 1.90536193-.76666667.75844504-1.34480874 1.69571046-1.69672131 2.70697051-1.27568306-.97426274-2.55136612-1.94235925-3.83333333-2.91662199 1.35109289-2.65147453 3.77677595-4.74182305 6.62349726-5.69758713z" fill="#ea4335"/><path d="m.27650273 9.2c.20737705-.99892761.54672131-1.97319035 1.01803279-2.88579088 1.27568306.97426273 2.55136612 1.94235924 3.83333333 2.91662198-.50273224 1.4367292-.50273224 3.0337802 0 4.4643432-1.27568306.9742627-2.55136612 1.9485254-3.82704918 2.9166219-1.18142076-2.2630026-1.53961748-4.9206434-1.02431694-7.4117962z" fill="#fbbc05"/><path d="m11.7325137 9.31715818h10.9972677c.3644809 2.01635392.2827869 4.11903482-.2953552 6.09222522-.534153 1.8067024-1.5459016 3.4839142-2.959836 4.7603217-1.2379782-.9434316-2.4759563-1.8868633-3.7139345-2.8302949 1.2254099-.8077748 2.092623-2.1150134 2.337705-3.5455764h-6.3721312c.0062842-1.4922252.0062842-2.9844504.0062842-4.47667562z" fill="#4285f4"/><path d="m1.28825137 16.6179625c1.27568306-.9680965 2.55136612-1.9423593 3.82704918-2.916622.49016393 1.4120643 1.43278688 2.663807 2.67704918 3.5209115.77923497.5364611 1.6715847.9187668 2.60163937 1.1037534.9174863.1849866 1.8663934.1603217 2.7901639.0061662.9174863-.1603217 1.8035519-.4871314 2.5765027-.9989276 1.2379782.9434316 2.4759563 1.8868632 3.7139345 2.8302949-1.3385246 1.2147453-3.0163935 2.0410187-4.7885246 2.441823-1.9606558.4378016-4.0344263.4501341-5.98251369-.0616622-1.54590164-.4008043-2.99754098-1.122252-4.24808743-2.1026809-1.31338798-1.0235925-2.4068306-2.3431636-3.16721311-3.8230563z" fill="#34a853"/></g></svg>

<?xml version="1.0" encoding="UTF-8" standalone="no"?>
<svg width="23px" height="23px" viewBox="0 0 23 23" version="1.1" xmlns="http://www.w3.org/2000/svg" xmlns:xlink="http://www.w3.org/1999/xlink">
    <!-- Generator: Sketch 3.8.3 (29802) - http://www.bohemiancoding.com/sketch -->
    <title>Group</title>
    <desc>Created with Sketch.</desc>
    <defs></defs>
    <g id="Page-1" stroke="none" stroke-width="1" fill="none" fill-rule="evenodd">
        <g id="signin" transform="translate(-433.000000, -381.000000)">
            <g id="Group-4" transform="translate(365.000000, 372.000000)">
                <g id="Group-3" transform="translate(48.000000, 0.000000)">
                    <g id="Group-2" transform="translate(20.000000, 9.000000)">
                        <g id="new-google-favicon">
                            <g id="Layer_1">
                                <g id="Group">
                                    <path d="M7.91174863,0.628954424 C5.06502732,1.5847185 2.63934426,3.67506702 1.28825137,6.32037534 C0.816939891,7.23297587 0.477595628,8.20107239 0.270218579,9.20616622 C-0.245081967,11.697319 0.113114754,14.3549598 1.28196721,16.6241287 C2.04234973,18.1040214 3.13579235,19.4235925 4.45546448,20.4533512 C5.70601093,21.4276139 7.15765027,22.1552279 8.70355191,22.5560322 C10.6516393,23.0678284 12.7254098,23.055496 14.6860656,22.6176944 C16.4581967,22.2168901 18.1360656,21.3844504 19.4745902,20.1758713 C20.8885246,18.8994638 21.9002732,17.222252 22.4344262,15.4155496 C23.0188525,13.4485255 23.0942623,11.3458445 22.7297814,9.3233244 L11.7325137,9.3233244 L11.7325137,13.8 L18.1046448,13.8 C17.8595628,15.230563 16.9923497,16.5378016 15.7669399,17.3455764 C14.9939891,17.8573727 14.1079235,18.1841823 13.1904372,18.344504 C12.2729508,18.4986595 11.3177596,18.5171582 10.4002732,18.3383378 C9.46393443,18.1533512 8.57786885,17.7710456 7.79863388,17.2345845 C6.55437158,16.3774799 5.60546448,15.1257373 5.1215847,13.7136729 C4.62513661,12.2769437 4.61885246,10.6798928 5.1215847,9.24932976 C5.47349727,8.23806971 6.05163934,7.30697051 6.81830601,6.54235925 C7.76092896,5.59276139 8.9863388,4.91447721 10.3122951,4.63699732 C11.4434426,4.40268097 12.6374317,4.4458445 13.7434426,4.77265416 C14.6860656,5.05013405 15.5532787,5.56193029 16.263388,6.22788204 C16.9797814,5.52493298 17.6961749,4.82198391 18.4125683,4.11903485 C18.7896175,3.74289544 19.1855191,3.37908847 19.55,2.99061662 C18.4628415,2.00402145 17.1808743,1.20857909 15.7857923,0.702949062 C13.2721311,-0.209651475 10.4442623,-0.228150134 7.91174863,0.628954424 L7.91174863,0.628954424 Z" id="Shape" fill="#FFFFFF"></path>
                                    <path d="M7.91174863,0.628954424 C10.4379781,-0.228150134 13.2721311,-0.209651475 15.7857923,0.696782842 C17.1808743,1.20241287 18.4565574,1.99168901 19.55,2.9844504 C19.1855191,3.37292225 18.7896175,3.73672922 18.4125683,4.11286863 C17.6961749,4.81581769 16.9797814,5.51876676 16.263388,6.22171582 C15.5532787,5.55576408 14.6860656,5.05013405 13.7434426,4.76648794 C12.6374317,4.43967828 11.4434426,4.39034853 10.3122951,4.6308311 C8.99262295,4.90831099 7.76721311,5.58659517 6.81830601,6.53619303 C6.05163934,7.29463807 5.47349727,8.23190349 5.1215847,9.24316354 C3.84590164,8.2689008 2.57021858,7.30080429 1.28825137,6.32654155 C2.63934426,3.67506702 5.06502732,1.5847185 7.91174863,0.628954424 L7.91174863,0.628954424 Z" id="Shape" fill="#EA4335"></path>
                                    <path d="M0.276502732,9.2 C0.483879781,8.20107239 0.823224044,7.22680965 1.29453552,6.31420912 C2.57021858,7.28847185 3.84590164,8.25656836 5.12786885,9.2308311 C4.62513661,10.6675603 4.62513661,12.2646113 5.12786885,13.6951743 C3.85218579,14.669437 2.57650273,15.6436997 1.30081967,16.6117962 C0.119398907,14.3487936 -0.238797814,11.6911528 0.276502732,9.2 L0.276502732,9.2 Z" id="Shape" fill="#FBBC05"></path>
                                    <path d="M11.7325137,9.31715818 L22.7297814,9.31715818 C23.0942623,11.3335121 23.0125683,13.436193 22.4344262,15.4093834 C21.9002732,17.2160858 20.8885246,18.8932976 19.4745902,20.1697051 C18.236612,19.2262735 16.9986339,18.2828418 15.7606557,17.3394102 C16.9860656,16.5316354 17.8532787,15.2243968 18.0983607,13.7938338 L11.7262295,13.7938338 C11.7325137,12.3016086 11.7325137,10.8093834 11.7325137,9.31715818 L11.7325137,9.31715818 Z" id="Shape" fill="#4285F4"></path>
                                    <path d="M1.28825137,16.6179625 C2.56393443,15.649866 3.83961749,14.6756032 5.11530055,13.7013405 C5.60546448,15.1134048 6.54808743,16.3651475 7.79234973,17.222252 C8.5715847,17.7587131 9.46393443,18.1410188 10.3939891,18.3260054 C11.3114754,18.510992 12.2603825,18.4863271 13.184153,18.3321716 C14.1016393,18.1718499 14.9877049,17.8450402 15.7606557,17.333244 C16.9986339,18.2766756 18.236612,19.2201072 19.4745902,20.1635389 C18.1360656,21.3782842 16.4581967,22.2045576 14.6860656,22.6053619 C12.7254098,23.0431635 10.6516393,23.055496 8.70355191,22.5436997 C7.15765027,22.1428954 5.70601093,21.4214477 4.45546448,20.4410188 C3.1420765,19.4174263 2.04863388,18.0978552 1.28825137,16.6179625 L1.28825137,16.6179625 Z" id="Shape" fill="#34A853"></path>
                                </g>
                            </g>
                        </g>
                    </g>
                </g>
            </g>
        </g>
    </g>
</svg>
